X: 1336
T: An Peata Sa Chistineach
R: jig
M: 6/8
K: Gmajor
f|:gBG GFG|EGG DGG|EGG FAA|BGB ABd|
gBG GFG|EGG DGG|EGG FAA|BGF G2d:|
|:Bdd cee|Bdd dBG|Bdd efg|dBA AGA|
Bdd cee|Bdd dBG|AcB AGA|BGF G2d:|

